X: 74
T: No_77_Harvest_Dance_Song.krn
N: Derived from No_77_Harvest_Dance_Song.krn
%%abc-version 2.0
%%abcx-abcm2ps-target-version 5.9.1 (29 Sep 2008)
%%abc-creator hum2abc beta
%%abcx-conversion-date 2019/03/15 08:25:36
%%humdrum-veritas 4177291688
%%humdrum-veritas-data 2444280288
%%linebreak <none>
%%barnumbers 0
L: 1/8
M: 2/4
K: C clef=bass
[K:clef=bass][M:2/4]A,3/E,/ E,3/D,/ [I:setbarnb 2]| 
[M:3/4]D,6 | 
[M:2/4]A,3/E,/ E,3/D,/ | 
E,3/D,/ D,3/C,/ | 
[M:3/4]A,,4z2 | 
[M:2/4]C,A,, (3C,C,A,, | 
[M:3/4]D,4C,2 | 
[M:2/4](3E,E,E,D,2 | 
D,2C,2 | 
(3E,E,D,C,2 | 
C,2A,, z | 
(3E,E,D, (D,C,) | 
C,3/D,/ C,A,, | 
A,,A,, A,, z | 
[M:3/4]C,A,, A,,A,, A,, z :|]  



